www/assets/icons/no_meeting_room.svg

<svg width="24" height="24" viewBox="0 0 24 24" xmlns="http://www.w3.org/2000/svg" fill='currentColor'><path d="M11.635 10.3648H10.635V12.3648H12.635V11.3648L22.365 21.0948L21.095 22.3648L14.635 15.9048V20.3648H3.63501V18.3648H5.63501V6.90477L1.63501 2.90477L2.90501 1.63477L11.635 10.3648ZM14.635 10.8548L6.14501 2.36477H14.635V3.36477H19.635V15.8548L17.635 13.8548V5.36477H14.635V10.8548Z"/></svg>

<svg xmlns="http://www.w3.org/2000/svg" width="24" height="24" viewBox="0 0 24 24" fill='currentColor'><path d="M11.635 10.365h-1v2h2v-1l9.73 9.73-1.27 1.27-6.46-6.46v4.46h-11v-2h2V6.905l-4-4 1.27-1.27zm3 .49-8.49-8.49h8.49v1h5v12.49l-2-2v-8.49h-3z"/></svg>
